icons/logout.svg

<svg fill="none" height="28" viewBox="0 0 28 28" width="28" xmlns="http://www.w3.org/2000/svg"><g clip-rule="evenodd" fill="#fff" fill-rule="evenodd"><path d="m13.0179 14.8292c-.0003-.5054-.4103-.9156-.9157-.9157-.7687-.0001-1.5312.3741-2.0533.9318-.54043.5775-.89304 1.4324-.66361 2.3967.10668.4484.31563.8549.64391 1.1751.2869.2798.6343.4552 1.0034.5563-.2548.3473-.4882.7696-.567 1.2395-.2631 1.5692.524 2.7533 1.658 3.3375 1.0809.5566 2.4819.5856 3.6541.0179 1.6541-.8014 3.0727-2.686 3.0728-5.0439 0-.5055-.4103-.9154-.9158-.9157-.5057 0-.9157.41-.9157.9157-.0001 1.6136-.9781 2.8805-2.039 3.3948-.6618.3206-1.4565.2924-2.0175.0036-.5077-.2614-.8092-.7106-.6922-1.4077.0193-.1153.1224-.3331.3827-.6403.2447-.2885.5574-.5737.8604-.8245.1491-.1235.2905-.2345.4149-.3309l.0773-.0598c.0906-.07.1796-.1388.2429-.1906.0334-.0274.1027-.0854.1645-.152.0189-.0199.1294-.1364.1968-.3095.0358-.0921.1219-.3556.0017-.6671-.1388-.359-.4372-.5059-.6081-.5545-.1544-.0438-.2831-.0362-.3327-.0322-.062.0051-.1129.0146-.143.0215-.0604.0137-.112.0319-.1431.0429-.066.0233-.1388.0542-.2075.0841-.7706.3349-1.3083.3865-1.6115.3237-.1373-.0285-.2129-.0763-.2576-.1198-.0447-.0436-.1026-.1255-.1413-.288-.0613-.2577.0154-.5038.2182-.7208.2215-.2366.5183-.3523.7173-.3523.5056-.0001.9157-.4101.9157-.9158zm4.2461-6.94866c-.4397-.24986-.9985-.09452-1.2484.3452-.2931.51588-.5445 1.19915-.5956 1.90666-.0514.7111.0973 1.5532.744 2.1999.4664.4662.9921.7669 1.5633.8854.4205.0872.8285.0664 1.2091-.0215-.3346.5045-.7056.9407-1.0964 1.2288-.46.339-.8759.4347-1.3075.3023-.243-.0747-.47-.284-.626-.6332-.1599-.3581-.1863-.7382-.1324-.9694.1148-.4923-.1911-.9849-.6832-1.1-.4926-.1148-.9852.1925-1.1.685-.1564.6718-.057 1.46.2433 2.132.3043.6813.8733 1.3641 1.7599 1.6366 1.1357.3489 2.1479.0011 2.9333-.5777.7634-.5626 1.3692-1.3773 1.8172-2.1356.4535-.7676.7845-1.5459.973-2.107.0897-.2668.1649-.5378.1914-.7494.0069-.0554.0152-.1381.0107-.2307-.0023-.0517-.0139-.3116-.1967-.5509-.1218-.15916-.3243-.31358-.5992-.35592-.2499-.03832-.4489.03323-.5562.08585-.096.0471-.1722.10606-.229.15737l-.1109.1163c-.491.592-1.0358 1.0501-1.5292 1.2305-.2307.0843-.4264.0985-.5992.0626-.17-.0353-.3867-.1328-.6403-.3863-.148-.1479-.2387-.3899-.2111-.7727.0279-.3862.1744-.80795.3595-1.13394.2499-.43972.0963-1.00035-.3434-1.25022zm-7.5995-.49118c0-.00001-.00001 0 0 0zm2.8351 1.85129c.0009.00115-.0009-.00087 0 0z"/><path d="m6.12647 9.30605c.1807 1.60075.89585 3.13825 1.92989 4.64135.28683.4161.85706.5208 1.27348.2343.41618-.2867.52081-.8569.2343-1.2734-.93685-1.362-1.48376-2.6128-1.61867-3.80794-.08709-.77236-.01742-1.42201.21463-1.93526.22167-.49026.62451-.93018 1.35933-1.25201.18467-.08088.43862-.08527.64207-.00179.1801.07407.2568.18217.2755.31837.0431.31628-.0892.56727-.4257.87462-.12101.11048-.22739.19274-.3468.28507-.06303.04873-.12973.10031-.20409.16029-.08728.07041-.21007.17348-.3148.29333-.08367.09589-.30381.36358-.30406.75657 0 .21246.07228.4471.24504.64032.15598.17438.33639.25051.44894.28438.20345.0611.39081.0459.46324.03935.17753-.01605.38623-.06357.54733-.10195.0667-.0159.1343-.03236.2023-.04897.3153-.07685.644-.15699.9746-.20143.4276-.05747.6689-.02496.7673.01968.0017.00076.0069.00694.0093.00972.0028.00641.0083.01714.0106.02653.0078.03287.0176.09438.0176.17659-.0002.28092-.1524.59633-.5383.90323-.2899.2304-.6619.412-1.041.5205l-.3792.0823c-.4997.0759-.84447.543-.76906 1.0427.0665.4377.43296.7565.85856.778l.1842-.0089c.7872-.1196 1.6255-.457 2.2858-.9819.6602-.5251 1.2303-1.3176 1.2306-2.33593 0-.40786-.0822-.80197-.2862-1.14649-.2084-.35177-.5053-.58946-.8263-.73511-.3832-.17376-.8034-.21439-1.1859-.20748.1675-.38288.2643-.83689.1914-1.37184-.1222-.89604-.7226-1.48935-1.3933-1.76534-.6473-.2663-1.41919-.26925-2.07478.01788-1.1152.4885-1.86997 1.2395-2.29297 2.17493-.4125.91234-.47466 1.92274-.36488 2.89573z"/></g></svg>

<svg width="28" height="28" viewBox="0 0 28 28" fill="none" xmlns="http://www.w3.org/2000/svg">
<path fill-rule="evenodd" clip-rule="evenodd" d="M13.0179 14.8292C13.0176 14.3238 12.6076 13.9136 12.1022 13.9135C11.3335 13.9134 10.571 14.2876 10.0489 14.8453C9.50847 15.4228 9.15586 16.2777 9.38529 17.242C9.49197 17.6904 9.70092 18.0969 10.0292 18.4171C10.3161 18.6969 10.6635 18.8723 11.0326 18.9734C10.7778 19.3207 10.5444 19.743 10.4656 20.2129C10.2025 21.7821 10.9896 22.9662 12.1236 23.5504C13.2045 24.107 14.6055 24.136 15.7777 23.5683C17.4318 22.7669 18.8504 20.8823 18.8505 18.5244C18.8505 18.0189 18.4402 17.609 17.9347 17.6087C17.429 17.6087 17.019 18.0187 17.019 18.5244C17.0189 20.138 16.0409 21.4049 14.98 21.9192C14.3182 22.2398 13.5235 22.2116 12.9625 21.9228C12.4548 21.6614 12.1533 21.2122 12.2703 20.5151C12.2896 20.3998 12.3927 20.182 12.653 19.8748C12.8977 19.5863 13.2104 19.3011 13.5134 19.0503C13.6625 18.9268 13.8039 18.8158 13.9283 18.7194L14.0056 18.6596C14.0962 18.5896 14.1852 18.5208 14.2485 18.469C14.2819 18.4416 14.3512 18.3836 14.413 18.317C14.4319 18.2971 14.5424 18.1806 14.6098 18.0075C14.6456 17.9154 14.7317 17.6519 14.6115 17.3404C14.4727 16.9814 14.1743 16.8345 14.0034 16.7859C13.849 16.7421 13.7203 16.7497 13.6707 16.7537C13.6087 16.7588 13.5578 16.7683 13.5277 16.7752C13.4673 16.7889 13.4157 16.8071 13.3846 16.8181C13.3186 16.8414 13.2458 16.8723 13.1771 16.9022C12.4065 17.2371 11.8688 17.2887 11.5656 17.2259C11.4283 17.1974 11.3527 17.1496 11.308 17.1061C11.2633 17.0625 11.2054 16.9806 11.1667 16.8181C11.1054 16.5604 11.1821 16.3143 11.3849 16.0973C11.6064 15.8607 11.9032 15.745 12.1022 15.745C12.6078 15.7449 13.0179 15.3349 13.0179 14.8292ZM17.264 7.88054C16.8243 7.63068 16.2655 7.78602 16.0156 8.22574C15.7225 8.74162 15.4711 9.42489 15.42 10.1324C15.3686 10.8435 15.5173 11.6856 16.164 12.3323C16.6304 12.7985 17.1561 13.0992 17.7273 13.2177C18.1478 13.3049 18.5558 13.2841 18.9364 13.1962C18.6018 13.7007 18.2308 14.1369 17.84 14.425C17.38 14.764 16.9641 14.8597 16.5325 14.7273C16.2895 14.6526 16.0625 14.4433 15.9065 14.0941C15.7466 13.736 15.7202 13.3559 15.7741 13.1247C15.8889 12.6324 15.583 12.1398 15.0909 12.0247C14.5983 11.9099 14.1057 12.2172 13.9909 12.7097C13.8345 13.3815 13.9339 14.1697 14.2342 14.8417C14.5385 15.523 15.1075 16.2058 15.9941 16.4783C17.1298 16.8272 18.142 16.4794 18.9274 15.9006C19.6908 15.338 20.2966 14.5233 20.7446 13.765C21.1981 12.9974 21.5291 12.2191 21.7176 11.658C21.8073 11.3912 21.8825 11.1202 21.909 10.9086C21.9159 10.8532 21.9242 10.7705 21.9197 10.6779C21.9174 10.6262 21.9058 10.3663 21.723 10.127C21.6012 9.96784 21.3987 9.81342 21.1238 9.77108C20.8739 9.73276 20.6749 9.80431 20.5676 9.85693C20.4716 9.90403 20.3954 9.96299 20.3386 10.0143L20.2277 10.1306C19.7367 10.7226 19.1919 11.1807 18.6985 11.3611C18.4678 11.4454 18.2721 11.4596 18.0993 11.4237C17.9293 11.3884 17.7126 11.2909 17.459 11.0374C17.311 10.8895 17.2203 10.6475 17.2479 10.2647C17.2758 9.8785 17.4223 9.45675 17.6074 9.13076C17.8573 8.69104 17.7037 8.13041 17.264 7.88054ZM9.6645 7.38936C9.6645 7.38935 9.66449 7.38936 9.6645 7.38936ZM12.4996 9.24065C12.5005 9.2418 12.4987 9.23978 12.4996 9.24065Z" fill="white"/>
<path fill-rule="evenodd" clip-rule="evenodd" d="M6.12647 9.30605C6.30717 10.9068 7.02232 12.4443 8.05636 13.9474C8.34319 14.3635 8.91342 14.4682 9.32984 14.1817C9.74602 13.895 9.85065 13.3248 9.56414 12.9083C8.62729 11.5463 8.08038 10.2955 7.94547 9.10036C7.85838 8.328 7.92805 7.67835 8.1601 7.1651C8.38177 6.67484 8.78461 6.23492 9.51943 5.91309C9.7041 5.83221 9.95805 5.82782 10.1615 5.9113C10.3416 5.98537 10.4183 6.09347 10.437 6.22967C10.4801 6.54595 10.3478 6.79694 10.0113 7.10429C9.89029 7.21477 9.78391 7.29703 9.6645 7.38936C9.60147 7.43809 9.53477 7.48967 9.46041 7.54965C9.37313 7.62006 9.25034 7.72313 9.14561 7.84298C9.06194 7.93887 8.8418 8.20656 8.84155 8.59955C8.84155 8.81201 8.91383 9.04665 9.08659 9.23987C9.24257 9.41425 9.42298 9.49038 9.53553 9.52425C9.73898 9.58535 9.92634 9.57015 9.99877 9.5636C10.1763 9.54755 10.385 9.50003 10.5461 9.46165C10.6128 9.44575 10.6804 9.42929 10.7484 9.41268C11.0637 9.33583 11.3924 9.25569 11.723 9.21125C12.1506 9.15378 12.3919 9.18629 12.4903 9.23093C12.492 9.23169 12.4972 9.23787 12.4996 9.24065C12.5024 9.24706 12.5079 9.25779 12.5102 9.26718C12.518 9.30005 12.5278 9.36156 12.5278 9.44377C12.5276 9.72469 12.3754 10.0401 11.9895 10.347C11.6996 10.5774 11.3276 10.759 10.9485 10.8675L10.5693 10.9498C10.0696 11.0257 9.72483 11.4928 9.80024 11.9925C9.86674 12.4302 10.2332 12.749 10.6588 12.7705L10.843 12.7616C11.6302 12.642 12.4685 12.3046 13.1288 11.7797C13.789 11.2546 14.3591 10.4621 14.3594 9.44377C14.3594 9.03591 14.2772 8.6418 14.0732 8.29728C13.8648 7.94551 13.5679 7.70782 13.2469 7.56217C12.8637 7.38841 12.4435 7.34778 12.061 7.35469C12.2285 6.97181 12.3253 6.5178 12.2524 5.98285C12.1302 5.08681 11.5298 4.4935 10.8591 4.21751C10.2118 3.95121 9.43991 3.94826 8.78432 4.23539C7.66912 4.72389 6.91435 5.47489 6.49135 6.41032C6.07885 7.32266 6.01669 8.33306 6.12647 9.30605Z" fill="white"/>
</svg>
